img/icon3.svg

<svg width="40" height="40" viewBox="0 0 40 40" fill="none" xmlns="http://www.w3.org/2000/svg">
<path d="M33.3612 8.68475C33.0153 8.68475 32.7349 8.96514 32.7349 9.31108V38.1211C32.7349 38.4665 32.4539 38.7474 32.1085 38.7474H7.89141C7.54602 38.7474 7.26508 38.4665 7.26508 38.1211V32.6931C7.26508 32.3473 6.98469 32.0668 6.63875 32.0668C6.29281 32.0668 6.01242 32.3472 6.01242 32.6931V38.1211C6.01242 39.1572 6.85523 40 7.89133 40H32.1086C33.1446 40 33.9875 39.1572 33.9875 38.1211V9.31108C33.9875 8.96514 33.7071 8.68475 33.3612 8.68475Z" fill="white"/>
<path d="M32.1086 0H7.89142C6.8554 0 6.01251 0.842812 6.01251 1.87891V28.6848C6.01251 29.0306 6.2929 29.3111 6.63884 29.3111C6.98478 29.3111 7.26517 29.0307 7.26517 28.6848V1.87891C7.26517 1.53352 7.54611 1.25258 7.8915 1.25258H32.1086C32.454 1.25258 32.7349 1.53352 32.7349 1.87891V5.97078C32.7349 6.31664 33.0153 6.59711 33.3613 6.59711C33.7072 6.59711 33.9876 6.31672 33.9876 5.97078V1.87891C33.9875 0.842812 33.1445 0 32.1086 0Z" fill="white"/>
<path d="M30.6889 2.67227H9.31108C8.96522 2.67227 8.68475 2.95266 8.68475 3.2986V15.9917C8.68475 16.3376 8.96514 16.6181 9.31108 16.6181H30.689C31.0349 16.6181 31.3153 16.3377 31.3153 15.9917V3.29852C31.3152 2.95266 31.0349 2.67227 30.6889 2.67227ZM30.0626 15.3653H9.93733V3.92485H30.0626V15.3653H30.0626Z" fill="white"/>
<path d="M30.6889 18.0376H21.3361C20.9902 18.0376 20.7098 18.318 20.7098 18.6639V26.6806C20.7098 27.0265 20.9901 27.307 21.3361 27.307H30.6889C31.0349 27.307 31.3152 27.0266 31.3152 26.6806V18.6639C31.3152 18.318 31.0349 18.0376 30.6889 18.0376ZM30.0627 26.0543H21.9624V19.2903H30.0627V26.0543Z" fill="white"/>
<path d="M18.6639 18.0376H9.31108C8.96522 18.0376 8.68475 18.318 8.68475 18.6639V26.6806C8.68475 27.0265 8.96514 27.307 9.31108 27.307H18.6639C19.0098 27.307 19.2902 27.0266 19.2902 26.6806V18.6639C19.2901 18.318 19.0098 18.0376 18.6639 18.0376ZM18.0376 26.0543H9.93733V19.2903H18.0376V26.0543Z" fill="#FCDB50"/>
<path d="M30.6889 28.0584H21.3361C20.9902 28.0584 20.7098 28.3388 20.7098 28.6848V36.7015C20.7098 37.0473 20.9901 37.3278 21.3361 37.3278H30.6889C31.0349 37.3278 31.3152 37.0474 31.3152 36.7015V28.6848C31.3152 28.3389 31.0349 28.0584 30.6889 28.0584ZM30.0627 36.0752H21.9624V29.3111H30.0627V36.0752Z" fill="#FCDB50"/>
<path d="M18.6639 28.0584H9.31108C8.96522 28.0584 8.68475 28.3388 8.68475 28.6848V36.7015C8.68475 37.0473 8.96514 37.3278 9.31108 37.3278H18.6639C19.0098 37.3278 19.2902 37.0474 19.2902 36.7015V28.6848C19.2901 28.3389 19.0098 28.0584 18.6639 28.0584ZM18.0376 36.0752H9.93733V29.3111H18.0376V36.0752Z" fill="white"/>
<path d="M15.9916 22.0459H14.6137V20.668C14.6137 20.3222 14.3334 20.0417 13.9874 20.0417C13.6415 20.0417 13.3611 20.3221 13.3611 20.668V22.0459H11.9832C11.6373 22.0459 11.3569 22.3263 11.3569 22.6723C11.3569 23.0182 11.6373 23.2986 11.9832 23.2986H13.3611V24.6765C13.3611 25.0223 13.6415 25.3028 13.9874 25.3028C14.3334 25.3028 14.6137 25.0224 14.6137 24.6765V23.2986H15.9916C16.3375 23.2986 16.618 23.0182 16.618 22.6723C16.618 22.3263 16.3375 22.0459 15.9916 22.0459Z" fill="#FCDB50"/>
<path d="M28.0167 22.0459H24.0083C23.6624 22.0459 23.382 22.3263 23.382 22.6723C23.382 23.0182 23.6623 23.2986 24.0083 23.2986H28.0167C28.3626 23.2986 28.643 23.0182 28.643 22.6723C28.643 22.3263 28.3626 22.0459 28.0167 22.0459Z" fill="white"/>
<path d="M14.8731 32.6931L16.4345 31.1318C16.6791 30.8873 16.6791 30.4906 16.4345 30.2461C16.1898 30.0015 15.7933 30.0015 15.5488 30.2461L13.9874 31.8074L12.4261 30.2461C12.1815 30.0015 11.7849 30.0015 11.5404 30.2461C11.2958 30.4907 11.2958 30.8873 11.5404 31.1318L13.1017 32.6931L11.5404 34.2544C11.3123 34.4824 11.2972 34.8591 11.507 35.1042C11.7412 35.3777 12.1712 35.3949 12.426 35.1401L13.9873 33.5788L15.5487 35.1401C15.8034 35.3949 16.2334 35.3777 16.4677 35.1042C16.6776 34.8591 16.6624 34.4824 16.4343 34.2544L14.8731 32.6931Z" fill="white"/>
<path d="M28.4596 30.2461C28.2149 30.0015 27.8184 30.0015 27.5738 30.2461L23.5655 34.2544C23.1796 34.6402 23.4605 35.3236 24.0083 35.3236C24.1685 35.3236 24.3288 35.2625 24.4512 35.1401L28.4595 31.1318C28.7042 30.8872 28.7042 30.4906 28.4596 30.2461Z" fill="#FCDB50"/>
<path d="M25.1193 30.9141L24.4513 30.2461C24.2066 30.0015 23.8101 30.0015 23.5655 30.2461C23.3209 30.4907 23.3209 30.8872 23.5655 31.1318L24.2334 31.7998C24.4882 32.0545 24.9183 32.0374 25.1525 31.7639C25.3624 31.5188 25.3474 31.1421 25.1193 30.9141Z" fill="#FCDB50"/>
<path d="M28.4597 34.2545L27.7916 33.5864C27.5469 33.3418 27.1504 33.3418 26.9058 33.5864C26.6612 33.831 26.6612 34.2276 26.9058 34.4721L27.5739 35.1402C27.8286 35.3949 28.2587 35.3778 28.4929 35.1042C28.7028 34.8592 28.6877 34.4824 28.4597 34.2545Z" fill="#FCDB50"/>
<path d="M28.4596 8.86821L24.4512 4.85985C24.2065 4.61524 23.8101 4.61524 23.5655 4.85985L19.5571 8.86821C19.4396 8.98563 19.3737 9.14493 19.3737 9.31102V13.9874C19.3737 14.3333 19.654 14.6138 20 14.6138H22.6722C23.0182 14.6138 23.2986 14.3334 23.2986 13.9874V11.9415H24.7182V13.9874C24.7182 14.3333 24.9985 14.6138 25.3445 14.6138H28.0168C28.3627 14.6138 28.6431 14.3334 28.6431 13.9874V9.31102C28.643 9.14501 28.577 8.98563 28.4596 8.86821ZM27.3904 13.3612H25.9708V11.3152C25.9708 10.9694 25.6905 10.6889 25.3444 10.6889H22.6722C22.3262 10.6889 22.0458 10.9693 22.0458 11.3152V13.3612H20.6262V9.57048L24.0083 6.18844L27.3903 9.57048V13.3612H27.3904Z" fill="white"/>
<path d="M17.1026 5.52797C16.858 5.28336 16.4614 5.28336 16.2169 5.52797L11.2064 10.5384C10.8205 10.9241 11.1015 11.6076 11.6492 11.6076C11.8094 11.6076 11.9698 11.5465 12.092 11.4241L17.1025 6.41367C17.3471 6.16899 17.3471 5.77242 17.1026 5.52797Z" fill="#FCDB50"/>
<path d="M17.7706 9.53624C17.526 9.29163 17.1295 9.29163 16.8849 9.53624L14.8808 11.5404C14.6527 11.7683 14.6376 12.1451 14.8474 12.3901C15.0817 12.6637 15.5117 12.6808 15.7664 12.4261L17.7706 10.4219C18.0152 10.1773 18.0152 9.78077 17.7706 9.53624Z" fill="#FCDB50"/>
</svg>

<svg width="40" height="40" fill="none" xmlns="http://www.w3.org/2000/svg"><path d="M33.361 8.685a.626.626 0 00-.626.626v28.81a.627.627 0 01-.627.626H7.892a.627.627 0 01-.626-.626v-5.428a.626.626 0 00-1.253 0v5.428A1.88 1.88 0 007.892 40h24.217a1.881 1.881 0 001.878-1.879V9.311a.626.626 0 00-.626-.626zM32.109 0H7.89a1.881 1.881 0 00-1.878 1.879v26.806a.626.626 0 001.252 0V1.879c0-.345.281-.626.627-.626h24.217c.345 0 .626.28.626.626V5.97a.626.626 0 001.253 0V1.879A1.881 1.881 0 0032.108 0z" fill="#fff"/><path d="M30.689 2.672H9.31a.626.626 0 00-.626.627v12.693c0 .346.28.626.626.626h21.38c.346 0 .626-.28.626-.626V3.299a.626.626 0 00-.626-.627zm-.626 12.693H9.937V3.925h20.126v11.44zm.626 2.673h-9.353a.626.626 0 00-.626.626v8.017c0 .345.28.626.626.626h9.353c.346 0 .626-.28.626-.626v-8.017a.626.626 0 00-.626-.626zm-.626 8.016h-8.1V19.29h8.1v6.764z" fill="#fff"/><path d="M18.664 18.038H9.31a.626.626 0 00-.626.626v8.017c0 .345.28.626.626.626h9.353c.346 0 .626-.28.626-.626v-8.017a.626.626 0 00-.626-.626zm-.626 8.016h-8.1V19.29h8.1v6.764zm12.651 2.004h-9.353a.626.626 0 00-.626.627v8.017c0 .345.28.626.626.626h9.353c.346 0 .626-.28.626-.627v-8.016a.626.626 0 00-.626-.627zm-.626 8.017h-8.1v-6.764h8.1v6.764z" fill="#FCDB50"/><path d="M18.664 28.058H9.31a.626.626 0 00-.626.627v8.017c0 .345.28.626.626.626h9.353c.346 0 .626-.28.626-.627v-8.016a.626.626 0 00-.626-.627zm-.626 8.017h-8.1v-6.764h8.1v6.764z" fill="#fff"/><path d="M15.992 22.046h-1.378v-1.378a.626.626 0 10-1.253 0v1.378h-1.378a.626.626 0 000 1.253h1.378v1.378a.626.626 0 001.253 0v-1.378h1.378a.626.626 0 100-1.253z" fill="#FCDB50"/><path d="M28.017 22.046h-4.009a.626.626 0 000 1.253h4.009a.626.626 0 100-1.253zM14.873 32.693l1.562-1.561a.626.626 0 10-.886-.886l-1.562 1.561-1.56-1.56a.626.626 0 10-.887.885l1.562 1.561-1.562 1.561a.632.632 0 00-.033.85c.234.274.664.29.919.036l1.561-1.561 1.562 1.561a.632.632 0 00.919-.036.632.632 0 00-.034-.85l-1.56-1.56z" fill="#fff"/><path d="M28.46 30.246a.626.626 0 00-.886 0l-4.009 4.008c-.385.386-.105 1.07.443 1.07.16 0 .32-.061.443-.184l4.008-4.008a.626.626 0 000-.886zm-3.34.668l-.669-.668a.626.626 0 00-.886.886l.668.668a.633.633 0 00.92-.036.632.632 0 00-.034-.85zm3.34 3.341l-.668-.669a.626.626 0 00-.886.886l.668.668a.632.632 0 00.919-.036.632.632 0 00-.033-.85z" fill="#FCDB50"/><path d="M28.46 8.868L24.45 4.86a.626.626 0 00-.886 0l-4.008 4.008a.626.626 0 00-.183.443v4.676c0 .346.28.627.626.627h2.672c.346 0 .627-.28.627-.627v-2.046h1.42v2.046c0 .346.28.627.625.627h2.673c.346 0 .626-.28.626-.627V9.311a.627.627 0 00-.183-.443zm-1.07 4.493h-1.42v-2.046a.626.626 0 00-.626-.626h-2.672a.626.626 0 00-.626.626v2.046h-1.42v-3.79l3.382-3.383L27.39 9.57v3.791z" fill="#fff"/><path d="M17.103 5.528a.626.626 0 00-.886 0l-5.01 5.01c-.387.386-.106 1.07.442 1.07.16 0 .32-.062.443-.184l5.01-5.01a.626.626 0 000-.886zm.667 4.008a.626.626 0 00-.885 0L14.88 11.54a.632.632 0 00-.034.85c.235.274.665.29.92.036l2.004-2.004a.626.626 0 000-.886z" fill="#FCDB50"/></svg>
